!!!!SEGMENT: pl-gd--ee-1638--002-029_marenzio-luca--motettorum-pro-festis-totius-anni-in-festo-s-martini-o-beatum-pontificem.krn
!!!cenid: 15xx:1032
!!!COM: Marenzio, Luca
!!!COM-rismID: pe30003955
!!!CDT: ~1553-1599/08/22
!!!CNT: Italian
!!!GTL: Motettorum pro festis totius anni
!!!OTL: In festo S. Martini/O Beatum Pontificem
!!!OMV: 029
!!!PDT: 1588
!!!AGN:
!!!SMS-siglum: PL-GD
!!!SMS-shelfmark: Ee 1638
!!!SMS-shelfwork: 002-029 G
!!!SMS-variant:
!!!SMS-altvar:
!!!NIFC-rismSourceID: 1001202747
!!!NIFC-rismChildID: 990039238
!!!NIFC-islandoraID: pl-gd:57883
!!!URL-pdf-islandora: https://repozytorium.nifc.pl/islandora/object/pl-gd%3A57883/datastream/PDF/view
!!!URL-scan: https://polish.musicsources.pl/pl/lokalizacje/galeria/klocki-introligatorskie/655 @EN{Scan on Polish Music Sources Website} @PL{Skany w portalu Dziedzictwo Muzyki Polskiej w otwartym dostępie}
!!!IIIF: https://repozytorium.nifc.pl/islandora/object/pl-gd%3A57883/datastream/IIIF/view
!!!ONB-nifc: UWAGA: Cantus: s. 630 (prawa), Altus: s. 478 (prawa), Tenor: s. 326 (prawa), Bassus: s. 174 (prawa)
!!!AIN: 1 alto 1 bass 1 soprn 1 tenor
!!!key:
**kern	**text	**kern	**text	**kern	**text	**kern	**text
*part4	*part4	*part3	*part3	*part2	*part2	*part1	*part1
*staff4	*staff4	*staff3	*staff3	*staff2	*staff2	*staff1	*staff1
*I"Basso	*	*I"Tenor	*	*I"Altus	*	*I"Cantus	*
*I'B	*	*I'T	*	*I'A	*	*I'C	*
*Ibass	*	*Itenor	*	*Ialto	*	*Isoprn	*
*ICvox	*	*ICvox	*	*ICvox	*	*ICvox	*
*clefF3	*	*clefC3	*	*clefC2	*	*clefG2	*
*k[]	*	*k[]	*	*k[]	*	*k[]	*
*C:	*	*C:	*	*C:	*	*C:	*
*M2/1	*	*M2/1	*	*M2/1	*	*M2/1	*
*met(C|)	*	*met(C|)	*	*met(C|)	*	*met(C|)	*
=1-	=1-	=1-	=1-	=1-	=1-	=1-	=1-
*xywh-#174:4580,582,3458,762	*	*	*	*	*	*	*
*	*	*xywh-#326:4543,538,3434,837	*	*	*	*	*
*	*	*	*	*xywh-#478:4462,572,3472,775	*	*	*
*	*	*	*	*	*	*xywh-#630:4504,520,3447,822	*
!	!	!	!	!	!	!LO:TX:a:B:t=Prestissimo	!
0r	.	0r	.	0c	O	0cc	O
=2-	=2-	=2-	=2-	=2-	=2-	=2-	=2-
0r	.	0r	.	1e	Be-	1g	Be-
.	.	.	.	1f	-a-	1a	-a-
=3-	=3-	=3-	=3-	=3-	=3-	=3-	=3-
0r	.	0r	.	2e/	-tum	2g/	-tum
.	.	.	.	2c/	Pon-	2cc\	Pon-
.	.	.	.	2.d/	-ti-	2.b/	-ti-
.	.	.	.	4d/	-fi-	4b/	-fi-
=4-	=4-	=4-	=4-	=4-	=4-	=4-	=4-
0C	O-	0c	O	0e	-cem	2.cc\	-cem
.	.	.	.	.	.	8b\	.
.	.	.	.	.	.	8a/	.
.	.	.	.	.	.	1g	.
=5-	=5-	=5-	=5-	=5-	=5-	=5-	=5-
1E	-Be-	1G	Be-	0r	.	0r	.
1F	-a-	1A	-a-	.	.	.	.
=6-	=6-	=6-	=6-	=6-	=6-	=6-	=6-
2E/	-tum	2G/	-tum	0r	.	0r	.
2C/	Pon-	2c/	Pon-	.	.	.	.
2.D/	-ti-	2.B/	-ti-	.	.	.	.
4D/	-fi-	4B/	-fi-	.	.	.	.
=7-	=7-	=7-	=7-	=7-	=7-	=7-	=7-
*	*	*	*	*	*ij	*	*ij
0C	-cem	2.c/	-cem	0g	O	0gg	O
.	.	4d\	.	.	.	.	.
.	.	1e	.	.	.	.	.
=8-	=8-	=8-	=8-	=8-	=8-	=8-	=8-
0r	.	0r	.	1b	Be-	1dd	Be-
.	.	.	.	1cc	-a-	1ee	-a-
=9-	=9-	=9-	=9-	=9-	=9-	=9-	=9-
0r	.	0r	.	2b\	-tum	2dd\	-tum
.	.	.	.	2g\	pon-	2gg\	Pon-
.	.	.	.	2.a\	-ti-	2.ff#X\	-ti-
.	.	.	.	4a\	-fi-	4ff#\	-fi-
=10-	=10-	=10-	=10-	=10-	=10-	=10-	=10-
*	*ij	*	*ij	*	*	*	*
0G	O	0g	O	0b	-cem	2.gg\	.
*	*	*	*	*	*Xij	*	*
.	.	.	.	.	.	8ffny\	.
!	!	!	!	!	!	!LO:SIC:v:t=custos a	!
.	.	.	.	.	.	8ee\	.
*	*	*	*	*	*	*xywh-#630:4542,1203,3385,675	*
!	!	!	!	!	!	!LO:LB:g=original	!
.	.	.	.	.	.	1dd	-cem
*	*	*	*	*	*	*	*Xij
=11-	=11-	=11-	=11-	=11-	=11-	=11-	=11-
1B	Be-	1d	Be-	0r	.	0r	.
1c	-a-	1e	-a-	.	.	.	.
=12-	=12-	=12-	=12-	=12-	=12-	=12-	=12-
2B\	-tum	2d\	-tum	0r	.	1r	.
!LO:SIC:v:t=custos A	!	!LO:SIC:v:t=custos f	!	!	!	!	!
2G\	pon-	2g\	pon-	.	.	.	.
*	*	*xywh-#326:4543,1245,3388,676	*	*	*	*	*
*xywh-#174:4596,1218,3458,675	*	*	*	*	*	*	*
!LO:LB:g=original	!	!LO:LB:g=original	!	!	!	!	!
2.A\	-ti-	2.f#X\	-ti-	.	.	2r	.
.	.	.	.	.	.	2a/	qui
4A\	-fi-	4f#\	-fi-	.	.	.	.
=13-	=13-	=13-	=13-	=13-	=13-	=13-	=13-
2G\	-cem	2g\	-cem	2r	.	1b	to-
*	*Xij	*	*Xij	*	*	*	*
2G\	qui	2d\	qui	2g\	qui	.	.
!	!	!	!	!LO:SIC:v:t=custos a	!	!	!
1c	to-	1e	to-	1g	to-	1cc	-tis
*	*	*	*	*xywh-#478:4438,1222,3440,650	*	*	*
!	!	!	!	!LO:LB:g=original	!	!	!
=14-	=14-	=14-	=14-	=14-	=14-	=14-	=14-
2F/	-tis	2fny\	-tis	2a\	-tis	1cc	viſ-
2A\	viſ-	2e\	viſ-	2a\	viſ-	.	.
2.G\	-ce-	2.g\	-ce-	2.b\	-ce-	2.dd\	-ce-
4G\	-ri-	4g\	-ri-	4b\	-ri-	4dd\	-ri-
=15-	=15-	=15-	=15-	=15-	=15-	=15-	=15-
2G\	-bus	2g\	-bus	2b\	-bus	2dd\	-bus
2.c\	di-	2.g\	di-	2.cc\	di-	2.ee\	di-
4G\	-li-	4g\	-li-	4b\	-li-	4dd\	-li-
2A\	-ge-	2e\	-ge-	2a\	-ge-	2cc\	-ge-
=16-	=16-	=16-	=16-	=16-	=16-	=16-	=16-
2E/	-bat	2e\	-bat	2g#X\	-bat	2b/	-bat
1A	Chriſ-	2e\	Chriſ-	1a	Chriſ-	1cc	Chriſ-
.	.	2e\	-tu(m)	.	.	.	.
2G\	-tu(m)	1g\	re-	2b\	-tu(m)	2dd\	-tu(m)
=17-	=17-	=17-	=17-	=17-	=17-	=17-	=17-
0d	re-	.	.	0a	re-	0dd	re-
.	.	4f\	.	.	.	.	.
.	.	4e\	.	.	.	.	.
.	.	1f#X	.	.	.	.	.
=18-	=18-	=18-	=18-	=18-	=18-	=18-	=18-
2G\	-gem	0.g	-gem	2b\	-gem	2dd\	-gem
1c	et	.	.	1cc	et	1ee	et
!LO:SIC:v:t=custos c	!	!	!	!	!	!	!
2c\	non	.	.	2cc\	no(n)	2ee\	non
*xywh-#174:4580,1776,3489,652	*	*	*	*	*	*	*
!LO:LB:g=original	!	!	!	!	!	!	!
=19-	=19-	=19-	=19-	=19-	=19-	=19-	=19-
2c\	for-	.	.	2cc\	for-	2ee\	for-
2c\	-mi-	.	.	2gny\	-mi-	2ee\	-mi-
!	!	!LO:SIC:v:t=custos e	!	!	!	!	!
1F	-da-	1r	.	1a	-da-	1ff	-da-
*	*	*xywh-#326:4543,1760,3442,737	*	*	*	*	*
!	!	!LO:LB:g=original	!	!	!	!	!
=20-	=20-	=20-	=20-	=20-	=20-	=20-	=20-
1c	-bat	2r	.	2g\	-bat	2ee\	-bat
!	!	!	!	!	!	!LO:SIC:v:t=custos gg	!
.	.	1e	et	2cc\	im-	2ee\	im-
*	*	*	*	*	*	*xywh-#630:4511,1739,3454,683	*
!	!	!	!	!	!	!LO:LB:g=original	!
1r	.	.	.	2.b\	-pe-	2.gg\	-pe-
.	.	2e\	non	.	.	.	.
.	.	.	.	4b\	-ry	4gg\	-ry
=21-	=21-	=21-	=21-	=21-	=21-	=21-	=21-
0r	.	2e\	for-	2g\	.	1ee	.
.	.	2e\	-mi-	2.cc\	prin-	.	.
.	.	1fny	-da-	.	.	2.a/	prin-
!	!	!	!	!LO:SIC:v:t=custos a	!	!	!
.	.	.	.	4b\	-ci-	.	.
*	*	*	*	*xywh-#478:4462,1771,3432,674	*	*	*
!	!	!	!	!LO:LB:g=original	!	!	!
.	.	.	.	1a\	-pa-	.	.
.	.	.	.	.	.	4b\	-ci-
=22-	=22-	=22-	=22-	=22-	=22-	=22-	=22-
2r	.	2e\	-bat	.	.	2cc\	-pa-
1E	et	2e\	im-	4g\	.	4b/	.
.	.	.	.	4f\	.	4a/	.
.	.	2.g\	-pe-	4e/	.	1b	.
.	.	.	.	4f\	.	.	.
2E/	non	.	.	2.g\	.	.	.
.	.	4g\	-ry	.	.	.	.
=23-	=23-	=23-	=23-	=23-	=23-	=23-	=23-
*	*	*	*	*	*	*lig	*
2E/	for-	1e	.	.	.	1g	-tum
.	.	.	.	4a\	.	.	.
2E/	-mi-	.	.	2.b\	.	.	.
1F	-da-	2.c/	prin-	.	.	1a	.
.	.	.	.	4a\	.	.	.
.	.	.	.	2.a\	.	.	.
.	.	4d\	.	.	.	.	.
*	*	*	*	*	*	*Xlig	*
=24-	=24-	=24-	=24-	=24-	=24-	=24-	=24-
2E/	-bat	1e	.	.	.	2r	.
.	.	.	.	4g\	.	.	.
2E/	im-	.	.	4g\	.	2b/	im-
.	.	.	.	8f\	.	.	.
.	.	.	.	8e\	.	.	.
2.A\	-pe-	1c	-ci-	4f\	.	2.cc\	-pe-
.	.	.	.	4e/	.	.	.
.	.	.	.	2.e/	.	.	.
4A\	-ry	.	.	.	.	4cc\	-ry
=25-	=25-	=25-	=25-	=25-	=25-	=25-	=25-
1D	.	2.f\	-pa-	.	.	1a	.
.	.	.	.	4d/	.	.	.
.	.	.	.	2.d/	.	.	.
.	.	4f\	.	.	.	.	.
*	*	*lig	*	*	*	*	*
2.E/	prin-	1e	.	.	.	2g/	prin-
.	.	.	.	4c/	.	.	.
.	.	.	.	2.c/	.	2g/	-ci-
4F/	-ci-	.	.	.	.	.	.
=26-	=26-	=26-	=26-	=26-	=26-	=26-	=26-
1G	-pa-	1d	.	.	.	1g	-pa-
.	.	.	.	8B/	.	.	.
.	.	.	.	8A/	.	.	.
.	.	.	.	2B/	.	.	.
*	*	*Xlig	*	*	*	*	*
!LO:SIC:v:t=custos c	!	!	!	!	!	!	!
1C	-tum	1e	-tum	1c	-tum	0g	-tum
*xywh-#174:4580,2271,3465,699	*	*	*	*	*	*	*
!LO:LB:g=original	!	!	!	!	!	!	!
=27-	=27-	=27-	=27-	=27-	=27-	=27-	=27-
1.c	O	1.e	O	1r	.	.	.
.	.	.	.	1.g	O	1.gg	O
2c\	Mar-	2e\	Mar-	.	.	.	.
=28-	=28-	=28-	=28-	=28-	=28-	=28-	=28-
!	!	!LO:SIC:v:t=custos c	!	!	!	!	!
1c	-ti-	1e	-ti-	.	.	.	.
*	*	*xywh-#326:4535,2313,3365,676	*	*	*	*	*
!	!	!LO:LB:g=original	!	!	!	!	!
.	.	.	.	2c/	Mar-	2gg\	Mar-
1C	-ne	1c	-ne	1e	-ti-	1gg	-ti-
=29-	=29-	=29-	=29-	=29-	=29-	=29-	=29-
1.c	O	2r	.	1g	-ne	1ee	-ne
.	.	1e	O	.	.	.	.
*	*	*	*	*	*ij	*	*
.	.	.	.	1.cc	O	1.gg	o
2c\	Mar-	2e\	Mar-	.	.	.	.
=30-	=30-	=30-	=30-	=30-	=30-	=30-	=30-
0c	-ti-	2.e\	-ti-	.	.	.	.
!	!	!	!	!LO:SIC:v:t=custos cc	!	!	!
.	.	.	.	2cc\	Mar-	2gg\	Mar-
*	*	*	*	*xywh-#478:4470,2335,3432,642	*	*	*
!	!	!	!	!LO:LB:g=original	!	!	!
.	.	4f\	.	.	.	.	.
.	.	1g	.	2cc\	-ti-	1ee	-ti-
.	.	.	.	2g\	-ne	.	.
*	*	*	*	*	*Xij	*	*
=31-	=31-	=31-	=31-	=31-	=31-	=31-	=31-
!	!	!	!	!	!	!LO:SIC:v:t=custos cc	!
2G\	-ne	2g\	-ne	2b-X\	dul-	2dd\	-ne
*	*	*	*	*	*	*xywh-#630:4535,2267,3447,714	*
!	!	!	!	!	!	!LO:LB:g=original	!
2A\	dul-	2e\	dul-	1a	-ce-	2cc#X\	dul-
0B-X	-ce-	0d	-ce-	.	.	0dd	-ce-
.	.	.	.	4g\	.	.	.
.	.	.	.	4f\	.	.	.
=32-	=32-	=32-	=32-	=32-	=32-	=32-	=32-
.	.	.	.	1g	.	.	.
2A\	-do	2e\	-do	1a	-do	4ccny\	-do
.	.	.	.	.	.	4dd\	.
2A\	me-	2c/	me-	.	.	4ee\	.
.	.	.	.	.	.	4ff\	.
=33-	=33-	=33-	=33-	=33-	=33-	=33-	=33-
2G\	-di-	2B/	-di-	1r	.	1gg	.
2E/	-ca-	2G/	-ca-	.	.	.	.
1F	-me(n)-	2.A/	-men-	2r	.	1r	.
.	.	.	.	2a\	me-	.	.
.	.	4A/	-tum	.	.	.	.
=34-	=34-	=34-	=34-	=34-	=34-	=34-	=34-
2E/	-tum	2B/	et	2g\	-di-	2r	.
2C/	et	1c	me-	2e/	-ca-	2gg\	me-
2.D/	me-	.	.	1f	-me(n)-	2ff\	-di-
.	.	2B/	-di-	.	.	2dd\	-ca-
4D/	-di-	.	.	.	.	.	.
=35-	=35-	=35-	=35-	=35-	=35-	=35-	=35-
2C/	-ce	1c	-ce	2e/	-tum	1ee	-men-
2c\	me-	.	.	2A/	et	.	.
!LO:SIC:v:t=custos g	!	!	!	!	!	!	!
2Bny\	-di-	2r	.	2.d/	me-	2dd\	-tum
*xywh-#174:4588,2861,3450,691	*	*	*	*	*	*	*
!LO:LB:g=original	!	!LO:SIC:v:t=custos e	!	!	!	!	!
2G\	-ca-	2g\	me-	.	.	2b/	et
*	*	*xywh-#326:4535,2858,3457,722	*	*	*	*	*
!	!	!LO:LB:g=original	!	!	!	!	!
.	.	.	.	4d/	-di-	.	.
=36-	=36-	=36-	=36-	=36-	=36-	=36-	=36-
1A	-men-	2e\	-di-	1c	-ce	2.cc\	me-
.	.	2f\	-ca-	.	.	.	.
.	.	.	.	.	.	4cc\	-di-
2G\	-tum	1g	-men-	1r	.	1b	-ce
2E/	et	.	.	.	.	.	.
=37-	=37-	=37-	=37-	=37-	=37-	=37-	=37-
*	*	*	*	*	*ij	*	*
2.F/	me-	2c/	-tum	1a	O	1r	.
.	.	2d\	et	.	.	.	.
4F/	-di-	.	.	.	.	.	.
1E	-ce	2e\	me-	2g\	Mar-	2r	.
*	*	*	*	*	*	*	*ij
.	.	2B/	-di-	2e/	-ti-	2gg\	me-
=38-	=38-	=38-	=38-	=38-	=38-	=38-	=38-
2r	.	2d\	-ce	1f	-ne	2ff\	-di-
*	*	*	*ij	*	*	*	*
2d\	me-	2f\	et	.	.	2dd\	-ca-
2c\	-di-	2e\	me-	2g\	dul-	1ee	-men-
2A\	-ca-	2c/	-di-	1a\	-ce-	.	.
=39-	=39-	=39-	=39-	=39-	=39-	=39-	=39-
1B-X	-men-	1d	-ce	.	.	1dd	-tum
.	.	.	.	2.g\	.	.	.
2A\	-tum	2e\	me-	.	.	1cc	et
.	.	.	.	4f\	.	.	.
2F/	et	2a\	-di-	1f\	.	.	.
=40-	=40-	=40-	=40-	=40-	=40-	=40-	=40-
2.G\	me-	2.g\	-ca-	.	.	2.b-X/	me-
!	!	!	!	!LO:SIC:v:t=custos f	!	!	!
.	.	.	.	2e/	.	.	.
*	*	*	*	*xywh-#478:4470,2876,3472,642	*	*	*
!	!	!	!	!LO:LB:g=original	!	!LO:SIC:v:t=custos a	!
4G\	-di-	4g\	-men-	.	.	4b-/	-di-
*	*	*	*	*	*	*xywh-#630:4527,2841,3400,628	*
!	!	!	!	!	!	!LO:LB:g=original	!
0F	-ce	0c	-tum	2.f\	.	2.a/	-ce
*	*	*	*Xij	*	*	*	*Xij
.	.	.	.	4g\	.	4b-/	.
=41-	=41-	=41-	=41-	=41-	=41-	=41-	=41-
.	.	.	.	1a	-do	1cc	.
*	*	*	*	*	*Xij	*	*
0C	o	0e	o	0g#y	O	1r	.
=42-	=42-	=42-	=42-	=42-	=42-	=42-	=42-
.	.	.	.	.	.	1.ee	o
1E	ſan-	1B	ſan-	1g#X	ſan-	.	.
.	.	.	.	.	.	2bny/	ſanc-
=43-	=43-	=43-	=43-	=43-	=43-	=43-	=43-
2.E/	-ctiſ-	2.e\	-ctiſ-	2.g#y\	-ctiſ-	2.b/	-tiſ-
!LO:SIC:v:t=custos E	!	!	!	!	!	!	!
4E/	-si-	4e\	-si-	4g#\	-si-	4b/	-si-
*xywh-#174:4564,3395,3560,660	*	*	*	*	*	*	*
!LO:LB:g=original	!	!LO:SIC:v:t=custos e	!	!	!	!	!
2E/	-ma	2e\	-ma	2g#\	-ma	2b/	-ma
*	*	*xywh-#326:4535,3389,3450,691	*	*	*	*	*
!	!	!LO:LB:g=original	!	!	!	!	!
1A\	a-	1e\	a-	1a\	a-	1cc\	a-
=44-	=44-	=44-	=44-	=44-	=44-	=44-	=44-
.	.	.	.	.	.	.	.
2D/	-ni-	2d\	-ni-	2f#X\	-ni-	2a/	-ni-
0D	-ma	0d	-ma	0f#	-ma	0a	-ma
=45-	=45-	=45-	=45-	=45-	=45-	=45-	=45-
.	.	.	.	.	.	.	.
0C	o	0e	o	0gny	o	1r	.
=46-	=46-	=46-	=46-	=46-	=46-	=46-	=46-
*	*	*	*	*	*	*	*ij
.	.	.	.	.	.	1.ee	o
1E	ſan-	1B	ſan-	1g#X	ſan-	.	.
.	.	.	.	.	.	2b/	san-
=47-	=47-	=47-	=47-	=47-	=47-	=47-	=47-
2.E/	-ctiſ-	2.e\	-ctiſ-	2.g#X\	-ctiſ-	2.b/	-ctis-
4E/	-si-	4e\	-si-	4g#\	-si-	4b/	-si-
2E/	-ma	2e\	-ma	2g#\	-ma	2b/	-ma
1A\	a-	1e\	a-	1a\	a-	1cc\	a-
=48-	=48-	=48-	=48-	=48-	=48-	=48-	=48-
.	.	.	.	.	.	.	.
2D/	-ni-	2d\	-ni-	2f#X\	-ni-	2a/	-ni-
0D	-ma	0d	-ma	0f#	-ma	1a	-ma
*	*	*	*	*	*	*	*Xij
=49-	=49-	=49-	=49-	=49-	=49-	=49-	=49-
.	.	.	.	.	.	2r	.
.	.	.	.	.	.	2.dd\	quam
1r	.	1r	.	2.gny\	qua(m)	.	.
.	.	.	.	.	.	4cc\	et
.	.	.	.	.	.	2dd\	ſi
.	.	.	.	4fny\	et	.	.
=50-	=50-	=50-	=50-	=50-	=50-	=50-	=50-
0r	.	0r	.	2g\	ſi	2.ee\	gla-
.	.	.	.	2.a\	gla-	.	.
!	!	!	!	!	!	!LO:SIC:v:t=custos ee	!
.	.	.	.	.	.	4ee\	-di-
*	*	*	*	*	*	*xywh-#630:4573,3361,3369,675	*
!	!	!	!	!	!	!LO:LB:g=original	!
.	.	.	.	.	.	1ee	-us
!	!	!	!	!LO:SIC:v:t=custos a	!	!	!
.	.	.	.	4a\	-di-	.	.
*	*	*	*	*xywh-#478:4462,3425,3495,666	*	*	*
!	!	!	!	!LO:LB:g=original	!	!	!
.	.	.	.	1a\	-us	.	.
=51-	=51-	=51-	=51-	=51-	=51-	=51-	=51-
0r	.	0r	.	.	.	2cc\	per-
.	.	.	.	2e/	per-	1ee	-ſe-
.	.	.	.	1.a	-ſe-	.	.
.	.	.	.	.	.	2ee\	-cu-
=52-	=52-	=52-	=52-	=52-	=52-	=52-	=52-
0r	.	0r	.	.	.	1ff	-to-
.	.	.	.	2bny\	-cu-	.	.
.	.	.	.	1cc	-to-	2ee\	-ris
.	.	.	.	.	.	2.gg\	non
=53-	=53-	=53-	=53-	=53-	=53-	=53-	=53-
0r	.	0r	.	2g\	-ris	.	.
.	.	.	.	.	.	4ff\	.
.	.	.	.	2g\	non	4ee\	.
.	.	.	.	.	.	4dd\	.
.	.	.	.	2.a\	ab-	2cc\	.
.	.	.	.	.	.	1ee\	ab-
.	.	.	.	4g\	.	.	.
=54-	=54-	=54-	=54-	=54-	=54-	=54-	=54-
0r	.	1r	.	2.f\	.	.	.
.	.	.	.	.	.	2dd\	-ſtu-
.	.	.	.	4f\	-ſtu-	.	.
.	.	2r	.	1e	-lit	0ee	-lit
.	.	2.c/	pal-	.	.	.	.
=55-	=55-	=55-	=55-	=55-	=55-	=55-	=55-
1c	pal-	.	.	2r	.	.	.
.	.	4d\	.	.	.	.	.
.	.	4e\	.	4c/	pal-	.	.
.	.	4f\	.	4d/	.	.	.
1c	-ma(m)	1g	.	4e/	.	4cc\	pal-
.	.	.	.	4f\	.	4dd\	.
.	.	.	.	2g\	.	4ee\	.
.	.	.	.	.	.	4ff\	.
=56-	=56-	=56-	=56-	=56-	=56-	=56-	=56-
4C/	pal-	2e\	-mam	2g\	-ma(m)	1gg	.
4D/	.	.	.	.	.	.	.
4E/	.	2.g\	ta-	2.c/	ta-	.	.
4F/	.	.	.	.	.	.	.
!LO:SIC:v:t=custos C	!	!	!	!	!	!	!
1G	.	.	.	.	.	1dd	-mam
*xywh-#174:4572,3945,3520,683	*	*	*	*	*	*	*
!LO:LB:g=original	!	!	!	!	!	!	!
.	.	4g\	-men	4B/	-men	.	.
.	.	2d\	mar-	2B/	mar-	.	.
=57-	=57-	=57-	=57-	=57-	=57-	=57-	=57-
2C/	-mam	1.e	-ty-	2g\	-ty-	4cc\	pal-
.	.	.	.	.	.	4dd\	.
2.c\	ta-	.	.	2g\	-ry	4ee\	.
.	.	.	.	.	.	4ff\	.
.	.	.	.	1g	.	2.gg\	.
4c\	-men	.	.	.	.	.	.
!	!	!LO:SIC:v:t=custos a	!	!	!	!	!
2G\	mar-	2d\	-ri	.	.	.	.
*	*	*xywh-#326:4550,3950,3473,706	*	*	*	*	*
!	!	!LO:LB:g=original	!	!	!	!LO:SIC:v:t=custos ee	!
.	.	.	.	.	.	4ff\	.
*	*	*	*	*	*	*xywh-#630:4558,3928,3423,659	*
!	!	!	!	!	!	!LO:LB:g=original	!
=58-	=58-	=58-	=58-	=58-	=58-	=58-	=58-
2.A\	-ty	1a	i	4c/	pal-	4ee\	.
!	!	!	!	!LO:SIC:v:t=custos e	!	!	!
.	.	.	.	4d/	.	4dd\	.
*	*	*	*	*xywh-#478:4493,3981,3409,627	*	*	*
!	!	!	!	!LO:LB:g=original	!	!	!
.	.	.	.	4e/	.	2cc\	.
4A\	.	.	.	4f\	.	.	.
1G	non	2d\	non	2.g\	.	2b/	-ma(m)
.	.	2B/	a-	.	.	2.gg\	ta-
.	.	.	.	4a\	.	.	.
=59-	=59-	=59-	=59-	=59-	=59-	=59-	=59-
1G	a-	1d	-mi-	1b	.	.	-men
.	.	.	.	.	.	4gg\	mar-
.	.	.	.	.	.	2dd\	-ty-
1E	-mi-	2G/	-ſit	2b\	-ma(m)	2.ee\	-ry
.	.	2.g\	ta-	2.cc\	ta-	.	.
.	.	.	.	.	.	4ee\	.
=60-	=60-	=60-	=60-	=60-	=60-	=60-	=60-
1G	-ſit	.	.	.	.	2dd\	.
.	.	4g\	-men	4b\	-men	.	.
.	.	2d\	mar-	2b\	mar-	4gg\	pal-
.	.	.	.	.	.	4ff\	.
1C	.	2.e\	-ty-	2.g\	-ty-	4ee\	.
.	.	.	.	.	.	4dd\	.
.	.	.	.	.	.	2cc\	.
.	.	4e\	-ry	4g\	-ry	.	.
=61-	=61-	=61-	=61-	=61-	=61-	=61-	=61-
4G\	pal-	1d	.	2g\	.	2b/	-mam
4A\	.	.	.	.	.	.	.
4Bny\	.	.	.	1g	non	2.dd\	ta-
4c\	.	.	.	.	.	.	.
1d	.	2r	.	.	.	.	.
.	.	.	.	.	.	4dd\	-men
.	.	1d\	no(n)	2f#X\	a-	2a/	mar-
=62-	=62-	=62-	=62-	=62-	=62-	=62-	=62-
1G	-ma(m)	.	.	2g\	-mi-	2.b/	-ty-
.	.	2B/	a-	2d/	-ſit	.	.
.	.	.	.	.	.	4b/	-ry
4D/	pal-	2d\	-mi-	4fny\	pal-	1a	.
4E/	.	.	.	4g\	.	.	.
4F/	.	2c/	-ſit	4a\	.	.	.
!LO:SIC:v:t=custos A	!	!	!	!	!	!	!
4G\	.	.	.	4b\	.	.	.
*xywh-#174:4596,4472,3465,762	*	*	*	*	*	*	*
!LO:LB:g=original	!	!	!	!	!	!	!
=63-	=63-	=63-	=63-	=63-	=63-	=63-	=63-
1A	.	4c/	pal-	1cc	.	2r	.
.	.	4d\	.	.	.	.	.
.	.	4e\	.	.	.	4cc\	pal-
!	!	!	!	!	!	!LO:SIC:v:t=custos ee	!
.	.	4f\	.	.	.	4dd\	.
*	*	*	*	*	*	*xywh-#630:4605,4479,3392,729	*
!	!	!	!	!	!	!LO:LB:g=original	!
1E	-mam	1g	.	1b	-mam	4ee\	.
.	.	.	.	.	.	4ff\	.
.	.	.	.	.	.	2gg\	.
=64-	=64-	=64-	=64-	=64-	=64-	=64-	=64-
4C/	pal-	2.g\	-mam	2r	.	2ee\	-mam
4D/	.	.	.	.	.	.	.
4E/	.	.	.	2.g\	ta-	2.cc\	ta-
4F/	.	8f\	.	.	.	.	.
!	!	!LO:SIC:v:t=custos d	!	!	!	!	!
.	.	8e\	.	.	.	.	.
*	*	*xywh-#326:4581,4495,3434,722	*	*	*	*	*
!	!	!LO:LB:g=original	!	!	!	!	!
1G	.	1d	.	.	.	.	.
!	!	!	!	!LO:SIC:v:t=custos d	!	!	!
.	.	.	.	4g\	-men	4cc\	-men
*	*	*	*	*xywh-#478:4485,4498,3456,697	*	*	*
!	!	!	!	!LO:LB:g=original	!	!	!
.	.	.	.	2d/	mar-	2b/	mar-
=65-	=65-	=65-	=65-	=65-	=65-	=65-	=65-
1C	-mam	2r	.	2.e/	-ty-	2.cc\	-ty-
.	.	2.c/	pal-	.	.	.	.
.	.	.	.	4e/	-ry	4cc\	-ry
2r	.	.	.	1e	.	1g	.
.	.	4d\	.	.	.	.	.
2.c\	ta-	4e\	.	.	.	.	.
.	.	4f\	.	.	.	.	.
=66-	=66-	=66-	=66-	=66-	=66-	=66-	=66-
.	.	1g	.	2e/	non	1gg	non
4c\	-men	.	.	.	.	.	.
2G\	mar-	.	.	2d/	a-	.	.
2.A\	-ty-	1c	-mam	4a\	-mi-	1ee	a-
.	.	.	.	4b\	.	.	.
.	.	.	.	1cc\	.	.	.
4A\	-ru(m)	.	.	.	.	.	.
=67-	=67-	=67-	=67-	=67-	=67-	=67-	=67-
1G	non	2r	.	.	.	1gg	-mi-
.	.	2.g\	ta-	4b\	.	.	.
.	.	.	.	4a\	.	.	.
1G	a-	.	.	1b	.	2dd\	-ſit
.	.	4g\	-men	.	.	.	.
.	.	2d\	mar-	.	.	1dd\	non
=68-	=68-	=68-	=68-	=68-	=68-	=68-	=68-
1E	-mi-	2.e\	-ty-	2g\	-ſit	.	.
.	.	.	.	1g	no(n)	2cc\	a-
.	.	4e\	-ry	.	.	.	.
0.F	.	2d\	.	.	.	2.b/	-mi-
.	.	1g\	non	2d/	a-	.	.
.	.	.	.	.	.	4a/	.
=69-	=69-	=69-	=69-	=69-	=69-	=69-	=69-
.	.	.	.	0g	-mii-	4b/	.
.	.	.	.	.	.	4g/	.
.	.	2e\	a-	.	.	1cc	.
.	.	1d	-mi-	.	.	.	.
.	.	.	.	.	.	2b/	.
=70-	=70-	=70-	=70-	=70-	=70-	=70-	=70-
00C	-ſit.	00c	-ſit.	00g	-ſit.	00cc	-ſit.
=71-	=71-	=71-	=71-	=71-	=71-	=71-	=71-
.	.	.	.	.	.	.	.
=-	=-	=-	=-	=-	=-	=-	=-
*-	*-	*-	*-	*-	*-	*-	*-
!!!system-decoration: s1,s2,s3,s4
!!!ENC: Andrzej Gręziak
!!!END: 2022-07-04
!!!ENC: Julita Ruszuk
!!!END: 2022-07-08
!!!ENC-iiif: Lidia Bialucha
!!!END-iiif: 2022-09-12
!!!YEC: Copyright 2022 Narodowy Instytut Fryderyka Chopina (https://polishscores.org)
!!!YEM: License CC-BY-4.0 (https://creativecommons.org/licenses/by/4.0)
